; HEADER_BLOCK_START
; generated by Creality_Print V5.1.4.10249 on 2025-12-26 at 05:35:23
; total layer number: 157
; filament_density: 1.25
; filament_diameter: 1.75
; max_z_height: 31.40
; HEADER_BLOCK_END

; MINX = 3.75
; MINY = 18.17
; MINZ = -0.00
; MAXX = 218.17
; MAXY = 217.22
; MAXZ = 31.41

; THUMBNAIL_BLOCK_START

;
; THUMBNAIL_BLOCK_END

; THUMBNAIL_BLOCK_START

;
; THUMBNAIL_BLOCK_END

; external perimeters extrusion width = 0.42mm
; perimeters extrusion width = 0.45mm
; infill extrusion width = 0.45mm
; solid infill extrusion width = 0.42mm
; top infill extrusion width = 0.42mm
; support material extrusion width = 0.40mm
; first layer extrusion width = 0.50mm

; external perimeters extrusion width = 0.42mm
; perimeters extrusion width = 0.45mm
; infill extrusion width = 0.45mm
; solid infill extrusion width = 0.42mm
; top infill extrusion width = 0.42mm
; support material extrusion width = 0.40mm
; first layer extrusion width = 0.50mm

; external perimeters extrusion width = 0.42mm
; perimeters extrusion width = 0.45mm
; infill extrusion width = 0.45mm
; solid infill extrusion width = 0.42mm
; top infill extrusion width = 0.42mm
; support material extrusion width = 0.40mm
; first layer extrusion width = 0.50mm

; EXECUTABLE_BLOCK_START
M73 P0 R146
M201 X5000 Y5000 Z500 E5000
M203 X500 Y500 Z30 E100
M204 P5000 R2500 T5000 ; sets acceleration (P, T) and retract acceleration (R), mm/sec^2
M205 X10.00 Y10.00 Z0.40 E5.00 ; sets the jerk limits, mm/sec
;TYPE:Custom
M220 S100 ;Reset Feedrate 
M221 S100 ;Reset Flowrate 
 
M140 S55 ;Set final bed temp 
G28 ;Home 
 
G92 E0 ;Reset Extruder 
G1 Z2.0 F3000 ;Move Z Axis up 
M104 S215 ;Set final nozzle temp 
G1 X-2.1 Y20 Z0.28 F5000.0 ;Move to start position 
M190 S55 ;Wait for bed temp to stabilize 
M109 S215 ;Wait for nozzle temp to stabilize 
G1 X-2.1 Y145.0 Z0.28 F1500.0 E15 ;Draw the first line 
G1 X-2.4 Y145.0 Z0.28 F5000.0 ;Move to side a little 
G1 X-2.4 Y20 Z0.28 F1500.0 E30 ;Draw the second line 
G92 E0  ;Reset Extruder 
G1 E-1.0000 F1800 ;Retract a bit 
G1 Z2.0 F3000 ;Move Z Axis up 
G1 E0.0000 F1800
G90
G21
M83 ; use relative distances for extrusion
M106 S0
;LAYER_CHANGE
;Z:0.2
;HEIGHT:0.2
;BEFORE_LAYER_CHANGE
;0.2
G92 E0

G1 E-1 F2400
;_SET_FAN_SPEED_CHANGING_LAYER
M204 P500
M205 X10 Y10
; printing object 1x_top_plate.stl id:9224362699791774815 copy 0
M204 T500
G1 X118.509 Y19.527 F9000
G1 Z.2
G1 E1 F1800
;TYPE:Inner wall
;WIDTH:0.499999
G1 X118.509 Y88.313 E2.48358
G1 X20.223 Y88.313 E3.5487
G1 X20.223 Y19.027 E2.50163
G1 X118.509 Y19.027 E3.5487
G1 X118.509 Y19.487 E.01661
G1 E-1 F2400
;WIPE_START
G1 F9000
G1 X118.509 Y21.487
;WIPE_END
G1 X118.966 Y18.57 Z.4
G1 Z.2
G1 E1 F1800
;TYPE:Outer wall
G1 X118.966 Y88.77 E2.53464
G1 X19.766 Y88.77 E3.58171
G1 X19.766 Y18.57 E2.53464
G1 X118.926 Y18.57 E3.58027
G1 E-1 F2400
;WIPE_START
G1 F9000
G1 X118.927 Y20.57
;WIPE_END
G1 X118.637 Y24.375 Z.4
G1 X114.17 Y82.932 Z.4
G1 Z.2
G1 E1 F1800
;TYPE:Inner wall
G1 X114.187 Y82.98 E.00184
G1 X114.243 Y83.517 E.01948
G1 X114.156 Y84 E.01772
G1 X113.947 Y84.444 E.01772
G1 X113.63 Y84.819 E.01772
G1 X113.227 Y85.098 E.01772
G1 X112.765 Y85.264 E.01772
G1 X112.366 Y85.311 E.01452
G1 X111.793 Y85.218 E.02094
G1 X111.349 Y85.009 E.01772
G1 X110.975 Y84.692 E.01772
G1 X110.695 Y84.289 E.01772
G1 X110.544 Y83.875 E.01591
G1 X110.488 Y83.338 E.01948
G1 X110.575 Y82.855 E.01772
G1 X110.784 Y82.411 E.01772
G1 X111.101 Y82.036 E.01772
G1 X111.504 Y81.757 E.01772
G1 X111.966 Y81.591 E.01772
G1 X112.455 Y81.55 E.01772
G1 X112.938 Y81.637 E.01772
G1 X113.382 Y81.846 E.01772
G1 X113.757 Y82.163 E.01772
G1 X114.037 Y82.566 E.01772
G1 X114.156 Y82.895 E.01263
G1 X113.605 Y82.728 F9000
;TYPE:Outer wall
G1 F1800
G1 X113.614 Y82.741 E.00058
G1 X113.736 Y83.051 E.01203
G1 X113.79 Y83.457 E.01479
G1 X113.734 Y83.825 E.01343
G1 X113.584 Y84.166 E.01343
G1 X113.352 Y84.456 E.01343
G1 X113.052 Y84.676 E.01343
G3 X112.366 Y84.854 I-.697 J-1.275 E.02586
G1 X111.968 Y84.796 E.01451
G1 X111.628 Y84.646 E.01343
G1 X111.337 Y84.414 E.01343
G1 X111.117 Y84.114 E.01343
G1 X110.996 Y83.804 E.01203
G1 X110.941 Y83.398 E.01479
G1 X110.997 Y83.03 E.01343
G1 X111.147 Y82.689 E.01343
G1 X111.379 Y82.399 E.01343
G1 X111.679 Y82.179 E.01343
G1 X112.026 Y82.044 E.01343
G1 X112.396 Y82.003 E.01343
G1 X112.763 Y82.059 E.01343
G1 X113.104 Y82.209 E.01343
G1 X113.394 Y82.441 E.01343
G1 X113.581 Y82.696 E.0114
G1 E-1 F2400
;WIPE_START
G1 F9000
G1 X113.614 Y82.741
G1 X113.736 Y83.051
G1 X113.79 Y83.457
G1 X113.734 Y83.825
G1 X113.584 Y84.166
G1 X113.352 Y84.456
G1 X113.283 Y84.506
;WIPE_END
G1 X113.328 Y80.69 Z.4
G1 X113.99 Y24.755 Z.4
G1 Z.2
M73 P0 R145
G1 E1 F1800
;TYPE:Inner wall
G1 X113.947 Y24.846 E.00363
G1 X113.63 Y25.22 E.01772
G1 X113.227 Y25.5 E.01772
G1 X112.765 Y25.666 E.01772
G1 X112.276 Y25.707 E.01772
G1 X111.793 Y25.62 E.01772
G1 X111.349 Y25.411 E.01772
G1 X110.975 Y25.094 E.01772
G1 X110.695 Y24.691 E.01772
G3 X110.482 Y23.845 I1.904 J-.928 E.03171
G1 X110.575 Y23.257 E.0215
G1 X110.784 Y22.813 E.01772
G1 X111.101 Y22.438 E.01772
G1 X111.504 Y22.159 E.01772
G1 X111.966 Y21.993 E.01772
G1 X112.455 Y21.952 E.01772
G1 X112.938 Y22.039 E.01772
G1 X113.382 Y22.248 E.01772
G1 X113.757 Y22.565 E.01772
G1 X114.037 Y22.968 E.01772
G1 X114.187 Y23.382 E.01591
G1 X114.243 Y23.919 E.01948
G1 X114.156 Y24.402 E.01772
G1 X114.007 Y24.719 E.01264
G1 X113.736 Y24.211 F9000
;TYPE:Outer wall
G1 F1800
G1 X113.734 Y24.227 E.00057
G1 X113.584 Y24.568 E.01343
G1 X113.352 Y24.858 E.01343
G1 X113.052 Y25.078 E.01343
G1 X112.706 Y25.213 E.01343
G1 X112.336 Y25.254 E.01343
G1 X111.968 Y25.198 E.01343
G1 X111.628 Y25.048 E.01343
G1 X111.337 Y24.816 E.01343
G1 X111.117 Y24.516 E.01343
G3 X110.939 Y23.835 I1.413 J-.733 E.02563
G1 X110.997 Y23.432 E.01469
G1 X111.147 Y23.091 E.01343
G1 X111.379 Y22.801 E.01343
G1 X111.679 Y22.581 E.01343
G1 X112.026 Y22.446 E.01343
G1 X112.396 Y22.405 E.01343
G1 X112.763 Y22.461 E.01343
G1 X113.104 Y22.611 E.01343
G1 X113.394 Y22.843 E.01343
G1 X113.614 Y23.143 E.01343
G1 X113.736 Y23.453 E.01203
G1 X113.79 Y23.859 E.01479
G1 X113.742 Y24.172 E.01142
G1 E-1 F2400
;WIPE_START
G1 F9000
G1 X113.734 Y24.227
G1 X113.584 Y24.568
G1 X113.352 Y24.858
G1 X113.052 Y25.078
G1 X112.706 Y25.213
G1 X112.336 Y25.254
G1 X112.252 Y25.241
;WIPE_END
G1 X108.438 Y25.119 Z.4
G1 X25.108 Y22.452 Z.4
G1 Z.2
G1 E1 F1800
;TYPE:Inner wall
G1 X25.349 Y22.248 E.01141
G1 X25.793 Y22.039 E.01772
G1 X26.366 Y21.946 E.02094
G1 X26.938 Y22.039 E.02094
G1 X27.382 Y22.248 E.01772
G1 X27.757 Y22.565 E.01772
G1 X28.037 Y22.968 E.01772
G1 X28.187 Y23.382 E.01591
G1 X28.243 Y23.919 E.01948
G1 X28.156 Y24.402 E.01772
G1 X27.947 Y24.846 E.01772
G1 X27.63 Y25.22 E.01772
G1 X27.227 Y25.5 E.01772
G1 X26.765 Y25.666 E.01772
G1 X26.276 Y25.707 E.01772
G1 X25.793 Y25.62 E.01772
G1 X25.349 Y25.411 E.01772
G1 X24.975 Y25.094 E.01772
G1 X24.695 Y24.691 E.01772
G1 X24.529 Y24.229 E.01772
G1 X24.488 Y23.919 E.01129
G1 X24.529 Y23.43 E.01772
G1 X24.695 Y22.968 E.01772
G1 X24.975 Y22.565 E.01772
G1 X25.077 Y22.478 E.00486
G1 X25.157 Y23.078 F9000
;TYPE:Outer wall
G1 F1800
G1 X25.379 Y22.801 E.01283
G1 X25.679 Y22.581 E.01343
G1 X26.026 Y22.446 E.01343
G1 X26.396 Y22.405 E.01343
G1 X26.763 Y22.461 E.01343
G1 X27.104 Y22.611 E.01343
G1 X27.394 Y22.843 E.01343
G1 X27.614 Y23.143 E.01343
G1 X27.736 Y23.453 E.01203
G1 X27.79 Y23.859 E.01479
G1 X27.734 Y24.227 E.01343
G1 X27.584 Y24.568 E.01343
G1 X27.352 Y24.858 E.01343
G1 X27.052 Y25.078 E.01343
G1 X26.706 Y25.213 E.01343
G1 X26.336 Y25.254 E.01343
G1 X25.968 Y25.198 E.01343
G1 X25.628 Y25.048 E.01343
G1 X25.337 Y24.816 E.01343
G1 X25.117 Y24.516 E.01343
G1 X24.982 Y24.169 E.01343
G1 X24.941 Y23.859 E.01129
G1 X24.997 Y23.432 E.01556
G1 X25.138 Y23.113 E.01259
G1 E-1 F2400
;WIPE_START
G1 F9000
G1 X25.379 Y22.801
G1 X25.679 Y22.581
G1 X26.026 Y22.446
G1 X26.396 Y22.405
G1 X26.763 Y22.461
G1 X26.871 Y22.508
;WIPE_END
G1 X26.953 Y26.324 Z.4
G1 X28.17 Y82.933 Z.4
G1 Z.2
G1 E1 F1800
;TYPE:Inner wall
G1 X28.187 Y82.98 E.00182
G1 X28.243 Y83.517 E.01948
G1 X28.156 Y84 E.01772
G1 X27.947 Y84.444 E.01772
G1 X27.63 Y84.819 E.01772
G1 X27.227 Y85.098 E.01772
G1 X26.765 Y85.264 E.01772
G1 X26.276 Y85.305 E.01772
G1 X25.793 Y85.218 E.01772
G1 X25.349 Y85.009 E.01772
G1 X24.975 Y84.692 E.01772
G1 X24.695 Y84.289 E.01772
G1 X24.544 Y83.875 E.01591
G1 X24.488 Y83.338 E.01948
G1 X24.575 Y82.855 E.01772
G1 X24.784 Y82.411 E.01772
G1 X25.101 Y82.037 E.01772
G1 X25.504 Y81.757 E.01772
G1 X25.966 Y81.591 E.01772
G1 X26.455 Y81.55 E.01772
G1 X26.888 Y81.619 E.01583
G1 X27.358 Y81.829 E.01858
G1 X27.757 Y82.163 E.01879
G1 X28.037 Y82.566 E.01772
G1 X28.156 Y82.895 E.01265
G1 X27.605 Y82.728 F9000
;TYPE:Outer wall
G1 F1800
G1 X27.614 Y82.741 E.00056
G1 X27.736 Y83.051 E.01203
G1 X27.79 Y83.457 E.01479
G1 X27.734 Y83.825 E.01343
G1 X27.584 Y84.166 E.01343
G1 X27.352 Y84.456 E.01343
G1 X27.052 Y84.676 E.01343
G1 X26.706 Y84.811 E.01343
G1 X26.336 Y84.852 E.01343
G1 X25.968 Y84.796 E.01343
G1 X25.628 Y84.646 E.01343
G1 X25.337 Y84.414 E.01343
G1 X25.117 Y84.114 E.01343
G1 X24.996 Y83.804 E.01203
G1 X24.941 Y83.398 E.01479
G1 X24.997 Y83.03 E.01343
G1 X25.147 Y82.689 E.01343
G1 X25.379 Y82.399 E.01343
G1 X25.679 Y82.179 E.01343
G1 X26.026 Y82.044 E.01343
G1 X26.396 Y82.003 E.01343
G1 X26.747 Y82.053 E.0128
G1 X27.104 Y82.209 E.01407
G1 X27.394 Y82.441 E.01343
G1 X27.581 Y82.696 E.01142
G1 E-1 F2400
;WIPE_START
G1 F9000
G1 X27.614 Y82.741
G1 X27.736 Y83.051
G1 X27.79 Y83.457
G1 X27.734 Y83.825
G1 X27.584 Y84.166
G1 X27.352 Y84.456
G1 X27.283 Y84.507
;WIPE_END
G1 Z.4
G1 X117.468 Y19.141
G1 Z.4
G1 Z.2
G1 E1 F1800
;TYPE:Bottom surface
;WIDTH:0.501185
G1 F4800
G1 X118.189 Y19.862 E.04244
G1 X118.189 Y20.51 E.02698
G1 X117.025 Y19.347 E.06848
G1 X116.377 Y19.347 E.02698
G1 X118.189 Y21.158 E.10664
G1 X118.189 Y21.807 E.02698
G1 X115.729 Y19.347 E.14479
G1 X115.081 Y19.347 E.02698
G1 X118.189 Y22.455 E.18295
G1 X118.189 Y23.103 E.02698
G1 X114.433 Y19.347 E.2211
G1 X113.785 Y19.347 E.02698
G1 X118.189 Y23.751 E.25926
G1 X118.189 Y24.399 E.02698
G1 X113.137 Y19.347 E.29741
G1 X112.489 Y19.347 E.02698
G1 X118.189 Y25.047 E.33556
G1 X118.189 Y25.695 E.02698
G1 X111.841 Y19.347 E.37372
G1 X111.193 Y19.347 E.02698
G1 X118.189 Y26.343 E.41187
G1 X118.189 Y26.991 E.02698
G1 X114.494 Y23.297 E.21752
G2 X112.896 Y21.698 I-2.126 J.528 E.09887
G1 X110.545 Y19.347 E.13842
G1 X109.897 Y19.347 E.02698
G1 X112.19 Y21.64 E.13501
G2 X111.652 Y21.751 I.144 J2.062 E.02292
G1 X109.248 Y19.347 E.14152
G1 X108.6 Y19.347 E.02698
G1 X111.213 Y21.96 E.1538
G2 X110.847 Y22.242 I1.626 J2.478 E.01925
G1 X107.952 Y19.347 E.17045
G1 X107.304 Y19.347 E.02698
G1 X110.55 Y22.593 E.19109
G2 X110.328 Y23.019 I1.819 J1.221 E.02003
G1 X106.656 Y19.347 E.21615
G1 X106.008 Y19.347 E.02698
G1 X110.383 Y23.722 E.25754
G1 E-1 F2400
;WIPE_START
G1 F9000
G1 X108.968 Y22.308
;WIPE_END
G1 X112.644 Y23.332 Z.4
G1 X114.36 Y23.811 Z.4
G1 Z.2
G1 E1 F1800
G1 F4800
G1 X118.189 Y27.639 E.22541
G1 X118.189 Y28.287 E.02698
G1 X114.444 Y24.543 E.22045
G3 X114.235 Y24.982 I-1.773 J-.573 E.02031
G1 X118.189 Y28.935 E.23274
G1 X118.189 Y29.584 E.02698
G1 X113.953 Y25.348 E.24938
G3 X113.602 Y25.645 I-1.305 J-1.182 E.0192
G1 X118.189 Y30.232 E.27002
G1 X118.189 Y30.88 E.02698
G1 X113.176 Y25.868 E.29508
G3 X112.661 Y26 I-.696 J-1.644 E.02225
G1 X118.189 Y31.528 E.32545
G1 X118.189 Y32.176 E.02698
G1 X112.001 Y25.988 E.36428
G1 X111.826 Y25.966 E.00734
G3 X110.809 Y25.39 I.629 J-2.296 E.04917
G1 X110.497 Y24.995 E.02096
G3 X110.216 Y24.204 I1.769 J-1.072 E.03519
G1 X105.36 Y19.347 E.28592
G1 X104.712 Y19.347 E.02698
G1 X118.189 Y32.824 E.79342
G1 X118.189 Y33.472 E.02698
G1 X104.064 Y19.347 E.83158
G1 X103.416 Y19.347 E.02698
G1 X118.189 Y34.12 E.86973
G1 X118.189 Y34.768 E.02698
G1 X102.768 Y19.347 E.90789
G1 X102.119 Y19.347 E.02698
G1 X118.189 Y35.416 E.94604
G1 X118.189 Y36.064 E.02698
G1 X101.471 Y19.347 E.9842
G1 X100.823 Y19.347 E.02698
G1 X118.189 Y36.713 E1.02235
G1 X118.189 Y37.361 E.02698
G1 X100.175 Y19.347 E1.06051
G1 X99.527 Y19.347 E.02698
G1 X118.189 Y38.009 E1.09866
G1 X118.189 Y38.657 E.02698
G1 X98.879 Y19.347 E1.13681
G1 X98.231 Y19.347 E.02698
G1 X118.189 Y39.305 E1.17497
G1 X118.189 Y39.953 E.02698
G1 X97.583 Y19.347 E1.21312
G1 X96.935 Y19.347 E.02698
G1 X118.189 Y40.601 E1.25128
G1 X118.189 Y41.249 E.02698
G1 X96.287 Y19.347 E1.28943
G1 X95.639 Y19.347 E.02698
G1 X118.189 Y41.897 E1.32759
G1 X118.189 Y42.545 E.02698
G1 X94.991 Y19.347 E1.36574
G1 X94.342 Y19.347 E.02698
G1 X118.189 Y43.193 E1.4039
G1 X118.189 Y43.841 E.02698
G1 X93.694 Y19.347 E1.44205
G1 X93.046 Y19.347 E.02698
G1 X118.189 Y44.49 E1.48021
G1 X118.189 Y45.138 E.02698
G1 X92.398 Y19.347 E1.51836
G1 X91.75 Y19.347 E.02698
G1 X118.189 Y45.786 E1.55652
G1 X118.189 Y46.434 E.02698
G1 X91.102 Y19.347 E1.59467
G1 X90.454 Y19.347 E.02698
G1 X118.189 Y47.082 E1.63283
G1 X118.189 Y47.73 E.02698
G1 X89.806 Y19.347 E1.67098
G1 X89.158 Y19.347 E.02698
G1 X118.189 Y48.378 E1.70914
G1 X118.189 Y49.026 E.02698
G1 X88.51 Y19.347 E1.74729
G1 X87.862 Y19.347 E.02698
G1 X118.189 Y49.674 E1.78545
G1 X118.189 Y50.322 E.02698
G1 X87.214 Y19.347 E1.8236
G1 X86.565 Y19.347 E.02698
G1 X118.189 Y50.97 E1.86176
G1 X118.189 Y51.618 E.02698
G1 X85.917 Y19.347 E1.89991
G1 X85.269 Y19.347 E.02698
G1 X118.189 Y52.267 E1.93807
G1 X118.189 Y52.915 E.02698
G1 X84.621 Y19.347 E1.97622
G1 X83.973 Y19.347 E.02698
G1 X118.189 Y53.563 E2.01437
G1 X118.189 Y54.211 E.02698
G1 X83.325 Y19.347 E2.05253
G1 X82.677 Y19.347 E.02698
G1 X118.189 Y54.859 E2.09068
G1 X118.189 Y55.507 E.02698
G1 X82.029 Y19.347 E2.12884
G1 X81.381 Y19.347 E.02698
G1 X118.189 Y56.155 E2.16699
G1 X118.189 Y56.803 E.02698
G1 X80.733 Y19.347 E2.20515
G1 X80.085 Y19.347 E.02698
G1 X118.189 Y57.451 E2.2433
G1 X118.189 Y58.099 E.02698
G1 X79.437 Y19.347 E2.28146
G1 X78.788 Y19.347 E.02698
G1 X118.189 Y58.747 E2.31961
G1 X118.189 Y59.395 E.02698
G1 X78.14 Y19.347 E2.35777
G1 X77.492 Y19.347 E.02698
G1 X118.189 Y60.044 E2.39592
G1 X118.189 Y60.692 E.02698
G1 X76.844 Y19.347 E2.43408
G1 X76.196 Y19.347 E.02698
G1 X118.189 Y61.34 E2.47223
G1 X118.189 Y61.988 E.02698
G1 X75.548 Y19.347 E2.51039
G1 X74.9 Y19.347 E.02698
G1 X118.189 Y62.636 E2.54854
G1 X118.189 Y63.284 E.02698
G1 X74.252 Y19.347 E2.5867
G1 X73.604 Y19.347 E.02698
G1 X118.189 Y63.932 E2.62485
G1 X118.189 Y64.58 E.02698
G1 X72.956 Y19.347 E2.66301
G1 X72.308 Y19.347 E.02698
G1 X118.189 Y65.228 E2.70116
G1 X118.189 Y65.876 E.02698
G1 X71.66 Y19.347 E2.73932
G1 X71.011 Y19.347 E.02698
G1 X118.189 Y66.524 E2.77747
G1 X118.189 Y67.172 E.02698
G1 X70.363 Y19.347 E2.81562
G1 X69.715 Y19.347 E.02698
G1 X118.189 Y67.821 E2.85378
G1 X118.189 Y68.469 E.02698
M73 P1 R145
G1 X69.067 Y19.347 E2.89193
G1 X68.419 Y19.347 E.02698
G1 X118.189 Y69.117 E2.93009
G1 X118.189 Y69.765 E.02698
G1 X67.771 Y19.347 E2.96824
G1 X67.123 Y19.347 E.02698
G1 X118.189 Y70.413 E3.0064
G1 X118.189 Y71.061 E.02698
G1 X66.475 Y19.347 E3.04455
G1 X65.827 Y19.347 E.02698
G1 X118.189 Y71.709 E3.08271
G1 X118.189 Y72.357 E.02698
G1 X65.179 Y19.347 E3.12086
G1 X64.531 Y19.347 E.02698
G1 X118.189 Y73.005 E3.15902
G1 X118.189 Y73.653 E.02698
G1 X63.883 Y19.347 E3.19717
G1 X63.234 Y19.347 E.02698
M73 P1 R144
G1 X118.189 Y74.301 E3.23533
G1 X118.189 Y74.949 E.02698
G1 X62.586 Y19.347 E3.27348
G1 X61.938 Y19.347 E.02698
G1 X118.189 Y75.598 E3.31164
G1 X118.189 Y76.246 E.02698
G1 X61.29 Y19.347 E3.34979
G1 X60.642 Y19.347 E.02698
G1 X118.189 Y76.894 E3.38795
G1 X118.189 Y77.542 E.02698
G1 X59.994 Y19.347 E3.4261
G1 X59.346 Y19.347 E.02698
G1 X118.189 Y78.19 E3.46426
G1 X118.189 Y78.838 E.02698
G1 X58.698 Y19.347 E3.50241
G1 X58.05 Y19.347 E.02698
G1 X118.189 Y79.486 E3.54057
G1 X118.189 Y80.134 E.02698
G1 X57.402 Y19.347 E3.57872
G1 X56.754 Y19.347 E.02698
G1 X118.189 Y80.782 E3.61687
G1 X118.189 Y81.43 E.02698
G1 X56.105 Y19.347 E3.65503
G1 X55.457 Y19.347 E.02698
G1 X118.189 Y82.078 E3.69318
G1 X118.189 Y82.727 E.02698
G1 X54.809 Y19.347 E3.73134
G1 X54.161 Y19.347 E.02698
G1 X118.189 Y83.375 E3.76949
G1 X118.189 Y84.023 E.02698
